X:364
M:C|
L:1/8
K:C
gfeg fagf|ecgc Bcdf|gfeg fagf|gefd BG ~c2|gfeg fagf|
ecgc Bcdf|ecBc BcEc|GEFD B,G,C2||

